X:1
T:The Lord's Prayer
T:Text: Matthew 6:9-13 Tune: Richard Langdon, 1774, alt.
T:PM LANGDON www.hymnary.org/text/our_father_who_art_in_heaven_lords_praye
T:The Lord's Prayer
T:This hymn is in the public domain. You may freely use this score for personal and congregational worship. If you reproduce the score, please credit Hymnary.org as the source. 
T:This hymn is in the public domain. You may freely use this score for personal and congregational worship. If you reproduce the score, please credit Hymnary.org as the source. 
T:This hymn is in the public domain. You may freely use this score for personal and congregational worship. If you reproduce the score, please credit Hymnary.org as the source. 
Z:This hymn is in the public domain. You may freely use this score for personal and congregational worship. If you reproduce the score, please credit Hymnary.org as the source.
%%score ( 1 2 ) ( 3 4 )
L:1/8
M:2/2
K:F
V:1 treble nm="SOPRANO ALTO" snm="S. A."
V:2 treble 
V:3 bass nm="TENOR BASS" snm="T. B."
V:4 bass 
V:1
 F4 | F4 F2 G2 | A8 | G2 F2 B2 A2 | G8 | G4 G2 G2 | G8 | G4 G2 A2 | B4 G4 | A4 G2 F2 | F4 E4 | F8 | %12
w: Our|Fa- ther in|heaven,|hal- lowed be your|name,|your king- dom|come,|your will be|done on|earth as it|is in|heaven.|
 F4 F2 F2 | F4 F4 | G2 G2 A4- | A4 G2 F2 | B4 A2 A2 | G6 G2 | G4 A2 A2 |1 B4 G4 | A4 (G2 F2) | %21
w: Give us to-|day our|dai- ly bread,|* and for-|give us our|debts, as|we al- so|have for-|given our *|
 (F4 E4) | F6 F2 | F2 F2 F4 | F4 F2 G2 ||"^Page 2" A4 A4- | A4 G2 F2 | B2 B2 B4 | B4 A4 | %29
w: debt- *|ors. And|lead us not|in- to temp-|ta- tion,|* but de-|liv- er us|from the|
 A2 G2 G4- | G4"^The Lord's Prayer" G4 | G4 G2 G2 | G2 G2 G2 G2 | G4 A2 A2 | B4 B4- | B4 G4 | %36
w: e- vil one.|* For|yours is the|king- dom and the|power and the|glo- ry|* for-|
 A4 (G2 F2) | (F4 E4) | F8 |] %39
w: ev- er. *|A- *|men.|
V:2
 C4 | C4 D2 E2 | F8 | E2 F2 G2 F2 | E8 | E4 E2 E2 | E8 | E4 D2 ^F2 | G4 E4 | F4 D2 D2 | C4 C4 | %11
 C8 | C4 C2 C2 | C4 D4 | E2 E2 F4- | F4 E2 F2 | G4 F2 F2 | E6 E2 | D4 ^F2 F2 |1 G4 E4 | F4 D4 | %21
 C8 | C6 C2 | C2 C2 C4 | D4 D2 E2 || F4 F4- | F4 E2 F2 | G2 G2 G4 | G4 F4 | F2 E2 E4- | E4 E4 | %31
 E4 E2 E2 | E2 E2 E2 E2 | D4 ^F2 F2 | G4 G4- | G4 E4 | F4 D4 | C8 | C8 |] %39
V:3
 A,4 | A,4 A,2 C2 | C8 | C2 A,2 C2 C2 | C8 | C4 C2 C2 | C8 | C4 D2 C2 | D4 C4 | C4 B,2 B,2 | %10
 A,4 G,4 | A,8 | A,4 A,2 A,2 | A,4 A,4 | C2 C2 C4- | C4 C2 A,2 | C4 C2 C2 | C6 C2 | D4 C2 C2 |1 %19
 D4 C4 | C4 B,4 | (A,4 G,4) | A,6 A,2 | A,2 A,2 A,4 | A,4 A,2 C2 || C4 C4- | C4 C2 A,2 | C2 C2 C4 | %28
 C4 C4 | C2 C2 C4- | C4 C4 | C4 C2 C2 | C2 C2 C2 C2 | D4 C2 C2 | D4 D4- | D4 C4 | C4 B,4 | %37
 (A,4 G,4) | A,8 |] %39
V:4
 F,4 | F,4 D,2 C,2 | F,8 | C,2 D,2 E,2 F,2 | C,8 | C,4 C,2 C,2 | C,8 | C,4 B,2 A,2 | G,4 C,4 | %9
 F,4 B,,2 B,,2 | C,4 C,4 | F,8 | F,4 F,2 F,2 | F,4 D,4 | C,2 C,2 F,4- | F,4 C,2 D,2 | E,4 F,2 F,2 | %17
 C,6 C,2 | B,4 A,2 A,2 |1 G,4 C,4 | F,4 B,,4 | C,8 | F,6 F,2 | F,2 F,2 F,4 | D,4 D,2 C,2 || %25
 F,4 F,4- | F,4 C,2 D,2 | E,2 E,2 E,4 | E,4 F,4 | F,2 C,2 C,4- | C,4 C,4 | C,4 C,2 C,2 | %32
 C,2 C,2 C,2 C,2 | B,4 A,2 A,2 | G,4 G,4- | G,4 C,4 | F,4 B,,4 | C,8 | F,,8 |] %39

